svg/emoji_u1f194.svg

<svg enable-background="new 0 0 128 128" viewBox="0 0 128 128" xmlns="http://www.w3.org/2000/svg"><linearGradient id="a" x1="64" x2="64" y1="-.3333" y2="128.1" gradientUnits="userSpaceOnUse"><stop stop-color="#B39DDB" offset="0"/><stop stop-color="#A286D3" offset=".371"/><stop stop-color="#7E57C2" offset=".9954"/></linearGradient><path d="m116 124h-104c-4.42 0-8-3.58-8-8v-104c0-4.42 3.58-8 8-8h104c4.42 0 8 3.58 8 8v104c0 4.42-3.58 8-8 8z" fill="url(#a)"/><g opacity=".2"><path d="m116 7c2.76 0 5 2.24 5 5v104c0 2.76-2.24 5-5 5h-104c-2.76 0-5-2.24-5-5v-104c0-2.76 2.24-5 5-5h104m0-3h-104c-4.42 0-8 3.58-8 8v104c0 4.42 3.58 8 8 8h104c4.42 0 8-3.58 8-8v-104c0-4.42-3.58-8-8-8z" fill="#424242"/></g><g fill="#424242" opacity=".2"><path d="m39.98 36c1.1 0 2 0.9 2 2v52c0 1.1-0.9 2-2 2h-5.69c-1.1 0-2-0.9-2-2v-52c0-1.1 0.9-2 2-2h5.69m0-3h-5.69c-2.76 0-5 2.24-5 5v52c0 2.76 2.24 5 5 5h5.69c2.76 0 5-2.24 5-5v-52c0-2.76-2.24-5-5-5z"/><path d="m70.48 36c4.95 0 9.34 1.1 13.17 3.31s6.8 5.33 8.9 9.38 3.15 8.69 3.15 13.92v2.81c0 5.31-1.06 9.97-3.17 14-2.12 4.03-5.13 7.13-9.04 9.31-3.9 2.18-8.38 3.27-13.43 3.27h-14.12c-1.1 0-2-0.9-2-2v-52c0-1.1 0.9-2 2-2h14.54m-4.81 48.15h4.35c5.1 0 9.02-1.59 11.75-4.78s4.12-7.76 4.17-13.72v-3.11c0-6.06-1.32-10.7-3.96-13.9s-6.47-4.8-11.5-4.8h-4.81c-1.1 0-2 0.9-2 2v36.31c0 1.11 0.9 2 2 2m4.81-51.15h-14.54c-2.76 0-5 2.24-5 5v52c0 2.76 2.24 5 5 5h14.11c5.55 0 10.56-1.23 14.9-3.65 4.41-2.46 7.85-6 10.23-10.53 2.33-4.44 3.52-9.62 3.52-15.4v-2.81c0-5.69-1.17-10.84-3.49-15.31-2.36-4.55-5.75-8.12-10.07-10.6-4.27-2.45-9.2-3.7-14.66-3.7zm-3.81 13.85h3.81c4.12 0 7.13 1.21 9.19 3.71 2.17 2.63 3.28 6.67 3.28 11.99v3.11c-0.04 5.18-1.21 9.15-3.45 11.77-2.15 2.51-5.25 3.73-9.47 3.73h-3.35v-34.31h-0.01z"/></g><g fill="#FAFAFA"><path d="m39.98 92h-5.69c-1.1 0-2-0.9-2-2v-52c0-1.1 0.9-2 2-2h5.69c1.1 0 2 0.9 2 2v52c0 1.1-0.89 2-2 2z"/><path d="m53.94 90v-52c0-1.1 0.9-2 2-2h14.54c4.95 0 9.34 1.1 13.17 3.31s6.8 5.33 8.9 9.38 3.15 8.69 3.15 13.92v2.81c0 5.31-1.06 9.97-3.17 14-2.12 4.03-5.13 7.13-9.04 9.31-3.9 2.18-8.38 3.27-13.43 3.27h-14.12c-1.1 0-2-0.9-2-2zm9.73-44.15v36.31c0 1.1 0.9 2 2 2h4.35c5.1 0 9.02-1.59 11.75-4.78s4.12-7.76 4.17-13.72v-3.11c0-6.06-1.32-10.7-3.96-13.9s-6.47-4.8-11.5-4.8h-4.81c-1.1 0-2 0.89-2 2z"/></g></svg>

<svg width="128" height="128" style="enable-background:new 0 0 128 128;" xmlns="http://www.w3.org/2000/svg" xmlns:xlink="http://www.w3.org/1999/xlink">
  <g>
    <linearGradient id="SVGID_1_" gradientUnits="userSpaceOnUse" x1="64" x2="64" y1="-0.3333" y2="128.0974">
      <stop offset="0" style="stop-color:#B39DDB"/>
      <stop offset="0.371" style="stop-color:#A286D3"/>
      <stop offset="0.9954" style="stop-color:#7E57C2"/>
    </linearGradient>
    <path d="M116,124H12c-4.42,0-8-3.58-8-8V12c0-4.42,3.58-8,8-8h104c4.42,0,8,3.58,8,8v104 C124,120.42,120.42,124,116,124z" style="fill:url(#SVGID_1_);"/>
    <g style="opacity:0.2;">
      <path d="M116,7c2.76,0,5,2.24,5,5v104c0,2.76-2.24,5-5,5H12c-2.76,0-5-2.24-5-5V12c0-2.76,2.24-5,5-5H116 M116,4H12c-4.42,0-8,3.58-8,8v104c0,4.42,3.58,8,8,8h104c4.42,0,8-3.58,8-8V12C124,7.58,120.42,4,116,4L116,4z" style="fill:#424242;"/>
    </g>
    <g style="opacity:0.2;">
      <path d="M39.98,36c1.1,0,2,0.9,2,2v52c0,1.1-0.9,2-2,2h-5.69c-1.1,0-2-0.9-2-2V38c0-1.1,0.9-2,2-2H39.98 M39.98,33h-5.69c-2.76,0-5,2.24-5,5v52c0,2.76,2.24,5,5,5h5.69c2.76,0,5-2.24,5-5V38C44.98,35.24,42.74,33,39.98,33L39.98,33z" style="fill:#424242;"/>
      <path d="M70.48,36c4.95,0,9.34,1.1,13.17,3.31c3.83,2.21,6.8,5.33,8.9,9.38c2.1,4.05,3.15,8.69,3.15,13.92 v2.81c0,5.31-1.06,9.97-3.17,14c-2.12,4.03-5.13,7.13-9.04,9.31C79.59,90.91,75.11,92,70.06,92H55.94c-1.1,0-2-0.9-2-2V38 c0-1.1,0.9-2,2-2H70.48 M65.67,84.15h4.35c5.1,0,9.02-1.59,11.75-4.78c2.73-3.19,4.12-7.76,4.17-13.72v-3.11 c0-6.06-1.32-10.7-3.96-13.9c-2.64-3.2-6.47-4.8-11.5-4.8h-4.81c-1.1,0-2,0.9-2,2v36.31C63.67,83.26,64.57,84.15,65.67,84.15 M70.48,33H55.94c-2.76,0-5,2.24-5,5v52c0,2.76,2.24,5,5,5h14.11c5.55,0,10.56-1.23,14.9-3.65c4.41-2.46,7.85-6,10.23-10.53 c2.33-4.44,3.52-9.62,3.52-15.4v-2.81c0-5.69-1.17-10.84-3.49-15.31c-2.36-4.55-5.75-8.12-10.07-10.6 C80.87,34.25,75.94,33,70.48,33L70.48,33z M66.67,46.85h3.81c4.12,0,7.13,1.21,9.19,3.71c2.17,2.63,3.28,6.67,3.28,11.99v3.11 c-0.04,5.18-1.21,9.15-3.45,11.77c-2.15,2.51-5.25,3.73-9.47,3.73h-3.35V46.85L66.67,46.85z" style="fill:#424242;"/>
    </g>
    <g>
      <path d="M39.98,92h-5.69c-1.1,0-2-0.9-2-2V38c0-1.1,0.9-2,2-2h5.69c1.1,0,2,0.9,2,2v52 C41.98,91.1,41.09,92,39.98,92z" style="fill:#FAFAFA;"/>
      <path d="M53.94,90V38c0-1.1,0.9-2,2-2h14.54c4.95,0,9.34,1.1,13.17,3.31c3.83,2.21,6.8,5.33,8.9,9.38 c2.1,4.05,3.15,8.69,3.15,13.92v2.81c0,5.31-1.06,9.97-3.17,14c-2.12,4.03-5.13,7.13-9.04,9.31C79.59,90.91,75.11,92,70.06,92 H55.94C54.84,92,53.94,91.1,53.94,90z M63.67,45.85v36.31c0,1.1,0.9,2,2,2h4.35c5.1,0,9.02-1.59,11.75-4.78 c2.73-3.19,4.12-7.76,4.17-13.72v-3.11c0-6.06-1.32-10.7-3.96-13.9c-2.64-3.2-6.47-4.8-11.5-4.8h-4.81 C64.57,43.85,63.67,44.74,63.67,45.85z" style="fill:#FAFAFA;"/>
    </g>
  </g>
</svg>
